X: 4
T: Missa Au travail suis / Kyrie
N: Derived from Ock1002a-Missa_Au_travail_suis-Kyrie.krn
C: Johannes Ockeghem
%%abc-version 2.0
%%abcx-abcm2ps-target-version 5.9.1 (29 Sep 2008)
%%abc-creator hum2abc beta
%%abcx-conversion-date 2019/02/17 07:26:13
%%abc-edited-by Jesse Rodin
%%abc-edited-by Jesse Rodin 8-17-2012
%%abcx-initial-encoding-date 2012/08/17/
%%humdrum-veritas 109004825
%%humdrum-veritas-data 3810764275
%%linebreak <none>
%%barnumbers 0
L: 1/4
M: 4/2
Q: 1/2=120
%%staves [1 2 3 4]
V: 1 clef=treble
V: 2 clef=treble
V: 3 clef=bass
V: 4 clef=bass
K: C
[V:1] D4F4 | 
[V:2] z8 | 
[V:3] z8 | 
[V:4] z8 | 
[V:1] E4D4 | 
[V:2] z4D4 | 
[V:3] z8 | 
[V:4] z8 | 
[V:1] A2A4G2 | 
[V:2] F4E4 | 
[V:3] z8 | 
[V:4] z8 | 
[V:1] A4A4 | 
[V:2] D4C2A,2 | 
[V:3] z8 | 
[V:4] D,4F,4 | 
[V:1] G4F3E | 
[V:2] B,2C2D4 | 
[V:3] z4D,4 | 
[V:4] E,4z2D,2 | 
[V:1] D2C2E2G2 | 
[V:2] z2A,2B,4 | 
[V:3] F,4E,4 | 
[V:4] A,2A,4G,2 | 
[V:1] F2E3DD2- | 
[V:2] C4A,2A2- | 
[V:3] A,,4z4 | 
[V:4] A,4F,2D,2 | 
[V:1] D2C2D2A,2 | 
[V:2] A2G2F2E2- | 
[V:3] G,4A,4 | 
[V:4] E,4D,2C,2 | 
[V:1] A4G4 | 
[V:2] EDD4^C2 | 
[V:3] F,2D,2E,4 | 
[V:4] D,4z2E,2 | 
[V:1] _B2A4d2 | 
[V:2] D8 | 
[V:3] D,4F,2G,2 | 
[V:4] F,3E,D,2B,,2 | 
[V:1] c2A4^G2 | 
[V:2] z2E4E2 | 
[V:3] A,2C2B,4 | 
[V:4] A,,4E,4 | 
[V:1] A8 ||  
[V:2] E8 ||  
[V:3] A,8 ||  
[V:4] A,,8 ||  
[V:1]  [K:C] [K:clef=treble][M:4/2]F4E4 | 
[V:2]  [K:C] [K:clef=treble][M:4/2]z8 | 
[V:3]  [K:C] [K:clef=bass][M:4/2]D,4C,4 | 
[V:4]  [K:C] [K:clef=bass][M:4/2]z8 | 
[V:1] D3CB,A,A,2- | 
[V:2] z8 | 
[V:3] F,6D,2 | 
[V:4] z8 | 
[V:1] A,2G,2A,4 | 
[V:2] z4C4 | 
[V:3] F,2E,2A,,4 | 
[V:4] z8 | 
[V:1] z8 | 
[V:2] D6E2- | 
[V:3] _B,,4G,,4 | 
[V:4] z8 | 
[V:1] z8 | 
[V:2] E2D3C_B,2- | 
[V:3] A,,2_B,,2G,,2D,2- | 
[V:4] z8 | 
[V:1] z8 | 
[V:2] B,A,A,4G,2 | 
[V:3] D,2C,2_B,,4 | 
[V:4] z8 | 
[V:1] E4F2A2- | 
[V:2] A,8 | 
[V:3] A,,4z4 | 
[V:4] C,4D,4 | 
[V:1] A2G2F2ED | 
[V:2] C4D4 | 
[V:3] A,,4B,,4 | 
[V:4] E,4D,4 | 
[V:1] C4z2E2- | 
[V:2] E6C2 | 
[V:3] C,6B,,A,, | 
[V:4] z2G,4A,2 | 
[V:1] EFG2A2c2- | 
[V:2] D2E2F4 | 
[V:3] G,,4F,,4 | 
[V:4] B,4C4 | 
[V:1] c2B2G2z2 | 
[V:2] E4z2F2- | 
[V:3] A,,3_B,,C,2D,2- | 
[V:4] A,3G,E,2D,2- | 
[V:1] A4A2_B2- | 
[V:2] F2E2C2D2- | 
[V:3] D,2C,2F,4 | 
[V:4] D,B,,C,2F,,2_B,,2- | 
[V:1] B2G2A2F2 | 
[V:2] D2C4B,2 | 
[V:3] G,2E,2D,4 | 
[V:4] B,,2C,2F,4 | 
[V:1] E8 ||  
[V:2] C8 ||  
[V:3] C,8 ||  
[V:4] G,8 ||  
[V:1]  [K:C] [K:clef=treble][M:4/2]A8 | 
[V:2]  [K:C] [K:clef=treble][M:4/2]C4A,4 | 
[V:3]  [K:C] [K:clef=bass][M:4/2]F,6D,2 | 
[V:4]  [K:C] [K:clef=bass][M:4/2]z8 | 
[V:1] F4D4 | 
[V:2] D6B,2 | 
[V:3] D,4G,4- | 
[V:4] z8 | 
[V:1] G8 | 
[V:2] B,2G,2G,4 | 
[V:3] G,2E,2E,2C,2 | 
[V:4] z4E,4 | 
[V:1] E4z2A2 | 
[V:2] B,2C2A,D2C | 
[V:3] z2C,2D,3F, | 
[V:4] G,4F,4 | 
[V:1] G2F2A2GE- | 
[V:2] CB,D3CB,2 | 
[V:3] E,2D,2F,2G,2 | 
[V:4] G,2A,2D,2E,C,- | 
[V:1] EFED/C/B,2A,2 | 
[V:2] A,2z2E2CA,- | 
[V:3] A,4G,2A,2- | 
[V:4] C,D,C,A,,E,2A,,2 | 
[V:1] z4D4 | 
[V:2] A,CB,2A,4 | 
[V:3] A,F,G,2F,2A,2 | 
[V:4] z4F,4 | 
[V:1] C2E3FG2- | 
[V:2] G,2A,2G,A,2B,- | 
[V:3] z2A,,2C,3D, | 
[V:4] E,2C,4E,2- | 
[V:1] GAB3cd2- | 
[V:2] B,C2D2E2D- | 
[V:3] E,3F,G,3F, | 
[V:4] E,2G,2G,,4 | 
[V:1] d2c2A2A2- | 
[V:2] DGFE2F2D- | 
[V:3] G,2A,2F,2D,2 | 
[V:4] B,,2A,,4D,2 | 
[V:1] AGA2F3G | 
[V:2] D^CCB,D4- | 
[V:3] E,4D,4- | 
[V:4] A,,4D,4- & x4A,4- | 
[V:1] A4A4 |]  
[V:2] D8 |]  
[V:3] D,8 |]  
[V:4] D,8 & A,8 |]  



% FRACTION = 0.75BUT SHOULD BE 0
